img/logo-mobile.svg

<svg width="67" height="39" viewBox="0 0 67 39" fill="none" xmlns="http://www.w3.org/2000/svg">
<path d="M11.3875 24.5308H10.204V27.5107H8.5027V20.1138H10.204V23.1043H11.4298L13.3741 20.1138H15.1811L12.7612 23.6854L15.2551 27.5107H13.3107L11.3875 24.5308ZM19.4142 21.7411C19.9425 21.7411 20.4216 21.8644 20.8513 22.1109C21.2881 22.3505 21.6297 22.6921 21.8763 23.136C22.1229 23.5727 22.2461 24.0835 22.2461 24.6682C22.2461 25.2529 22.1229 25.7672 21.8763 26.211C21.6297 26.6478 21.2881 26.9894 20.8513 27.236C20.4216 27.4755 19.9425 27.5953 19.4142 27.5953C18.6885 27.5953 18.1179 27.3663 17.7023 26.9084V29.5608H16.0538V21.8256H17.6283V22.4808C18.0369 21.9877 18.6322 21.7411 19.4142 21.7411ZM19.1288 26.2427C19.5515 26.2427 19.8967 26.1018 20.1644 25.82C20.4392 25.5312 20.5765 25.1472 20.5765 24.6682C20.5765 24.1891 20.4392 23.8087 20.1644 23.5269C19.8967 23.2381 19.5515 23.0937 19.1288 23.0937C18.7062 23.0937 18.3574 23.2381 18.0827 23.5269C17.815 23.8087 17.6811 24.1891 17.6811 24.6682C17.6811 25.1472 17.815 25.5312 18.0827 25.82C18.3574 26.1018 18.7062 26.2427 19.1288 26.2427ZM25.5172 21.7411C26.3978 21.7411 27.074 21.9524 27.546 22.3751C28.018 22.7908 28.254 23.4213 28.254 24.2666V27.5107H26.7112V26.8027C26.4013 27.3311 25.8236 27.5953 24.9782 27.5953C24.5415 27.5953 24.161 27.5213 23.837 27.3734C23.52 27.2254 23.2769 27.0211 23.1079 26.7605C22.9388 26.4998 22.8542 26.2039 22.8542 25.8728C22.8542 25.3445 23.0515 24.9288 23.446 24.6259C23.8476 24.323 24.464 24.1715 25.2952 24.1715H26.6056C26.6056 23.8123 26.4964 23.5375 26.278 23.3473C26.0596 23.15 25.732 23.0514 25.2952 23.0514C24.9923 23.0514 24.6929 23.1007 24.397 23.1994C24.1082 23.2909 23.8616 23.4177 23.6573 23.5798L23.0656 22.428C23.3756 22.2096 23.7454 22.0405 24.1751 21.9207C24.6119 21.801 25.0592 21.7411 25.5172 21.7411ZM25.3904 26.4857C25.6721 26.4857 25.9222 26.4223 26.1406 26.2955C26.359 26.1617 26.514 25.9679 26.6056 25.7143V25.1331H25.4749C24.7986 25.1331 24.4604 25.3551 24.4604 25.7989C24.4604 26.0102 24.5415 26.1793 24.7035 26.3061C24.8726 26.4259 25.1015 26.4857 25.3904 26.4857ZM32.3912 27.5953C31.7854 27.5953 31.2394 27.472 30.7533 27.2254C30.2743 26.9718 29.8974 26.6231 29.6226 26.1793C29.3549 25.7355 29.2211 25.2318 29.2211 24.6682C29.2211 24.1046 29.3549 23.6009 29.6226 23.1571C29.8974 22.7133 30.2743 22.3681 30.7533 22.1215C31.2394 21.8679 31.7854 21.7411 32.3912 21.7411C32.99 21.7411 33.5113 21.8679 33.9552 22.1215C34.406 22.3681 34.7336 22.7238 34.9379 23.1888L33.6593 23.8757C33.3634 23.3543 32.9372 23.0937 32.3807 23.0937C31.9509 23.0937 31.5952 23.2346 31.3134 23.5164C31.0316 23.7982 30.8907 24.1821 30.8907 24.6682C30.8907 25.1543 31.0316 25.5382 31.3134 25.82C31.5952 26.1018 31.9509 26.2427 32.3807 26.2427C32.9442 26.2427 33.3705 25.982 33.6593 25.4607L34.9379 26.1582C34.7336 26.609 34.406 26.9613 33.9552 27.2149C33.5113 27.4685 32.99 27.5953 32.3912 27.5953ZM35.9396 21.8256H37.5775V25.2071L40.3461 21.8256H41.8572V27.5107H40.2193V24.1293L37.4613 27.5107H35.9396V21.8256ZM47.785 24.5414C48.4542 24.7668 48.7888 25.2177 48.7888 25.894C48.7888 26.4082 48.5951 26.8063 48.2076 27.0881C47.8202 27.3698 47.2425 27.5107 46.4746 27.5107H43.4419V21.8256H46.3478C47.0594 21.8256 47.6159 21.956 48.0174 22.2166C48.419 22.4702 48.6198 22.8295 48.6198 23.2945C48.6198 23.5763 48.5458 23.8263 48.3979 24.0447C48.257 24.2561 48.0527 24.4216 47.785 24.5414ZM44.953 24.161H46.1999C46.7776 24.161 47.0664 23.9567 47.0664 23.5481C47.0664 23.1465 46.7776 22.9457 46.1999 22.9457H44.953V24.161ZM46.3373 26.3906C46.9431 26.3906 47.246 26.1828 47.246 25.7672C47.246 25.5488 47.1756 25.3903 47.0347 25.2916C46.8938 25.186 46.6719 25.1331 46.369 25.1331H44.953V26.3906H46.3373ZM53.0059 23.6432C53.7456 23.6502 54.3056 23.8158 54.686 24.1398C55.0664 24.4639 55.2567 24.9288 55.2567 25.5347C55.2567 26.1687 55.0418 26.6583 54.6121 27.0035C54.1823 27.3487 53.573 27.5213 52.784 27.5213L50.0154 27.5107V21.8256H51.6533V23.6432H53.0059ZM55.8695 21.8256H57.5075V27.5107H55.8695V21.8256ZM52.636 26.3484C52.953 26.3554 53.1961 26.2885 53.3651 26.1476C53.5342 26.0067 53.6188 25.7953 53.6188 25.5136C53.6188 25.2388 53.5342 25.038 53.3651 24.9112C53.2031 24.7844 52.9601 24.7175 52.636 24.7105L51.6533 24.6999V26.3484H52.636ZM59.0965 21.8256H60.7344V25.2071L63.503 21.8256H65.0141V27.5107H63.3762V24.1293L60.6181 27.5107H59.0965V21.8256ZM61.9496 21.2127C60.7097 21.2127 60.0863 20.6668 60.0792 19.5748H61.1571C61.1641 19.8214 61.231 20.0151 61.3578 20.156C61.4917 20.2899 61.6854 20.3568 61.939 20.3568C62.1926 20.3568 62.3864 20.2899 62.5202 20.156C62.6611 20.0151 62.7316 19.8214 62.7316 19.5748H63.8305C63.8235 20.6668 63.1965 21.2127 61.9496 21.2127Z" fill="#43442F"/>
<path d="M53.9251 35.0637V36.9975H52.776V36.0781H49.7802V36.9975H48.631V35.0637H48.8054C49.0695 35.0584 49.2518 34.9025 49.3522 34.5961C49.4526 34.2896 49.516 33.8537 49.5424 33.2884L49.5979 31.8143H53.3149V35.0637H53.9251ZM50.6599 33.3756C50.644 33.8088 50.6097 34.1628 50.5569 34.4376C50.5093 34.7123 50.4169 34.921 50.2795 35.0637H52.0785V32.8287H50.6837L50.6599 33.3756ZM56.7004 36.1415C56.2513 36.1415 55.8471 36.0491 55.4878 35.8641C55.1338 35.6739 54.8564 35.4124 54.6556 35.0795C54.4549 34.7467 54.3545 34.3689 54.3545 33.9462C54.3545 33.5235 54.4549 33.1457 54.6556 32.8129C54.8564 32.48 55.1338 32.2211 55.4878 32.0362C55.8471 31.846 56.2513 31.7509 56.7004 31.7509C57.1495 31.7509 57.551 31.846 57.905 32.0362C58.259 32.2211 58.5364 32.48 58.7372 32.8129C58.938 33.1457 59.0383 33.5235 59.0383 33.9462C59.0383 34.3689 58.938 34.7467 58.7372 35.0795C58.5364 35.4124 58.259 35.6739 57.905 35.8641C57.551 36.0491 57.1495 36.1415 56.7004 36.1415ZM56.7004 35.1271C57.0174 35.1271 57.2763 35.0214 57.4771 34.8101C57.6831 34.5934 57.7861 34.3055 57.7861 33.9462C57.7861 33.5869 57.6831 33.3016 57.4771 33.0903C57.2763 32.8736 57.0174 32.7653 56.7004 32.7653C56.3834 32.7653 56.1218 32.8736 55.9158 33.0903C55.7097 33.3016 55.6067 33.5869 55.6067 33.9462C55.6067 34.3055 55.7097 34.5934 55.9158 34.8101C56.1218 35.0214 56.3834 35.1271 56.7004 35.1271ZM64.0495 36.0781V33.5262L62.7735 35.666H62.2505L61.0062 33.5182V36.0781H59.8887V31.8143H61.1805L62.5437 34.2791L63.994 31.8143H65.1511L65.167 36.0781H64.0495Z" fill="#A62C21"/>
<path d="M11.4514 1L24.8156 14.3138H1V34.6827H26.7573" stroke="#A62C21" stroke-width="1.98133" stroke-linecap="round" stroke-linejoin="round"/>
</svg>

<svg width="67" height="39" fill="none" xmlns="http://www.w3.org/2000/svg"><path d="M11.387 24.53h-1.183v2.98H8.503v-7.396h1.701v2.99h1.226l1.944-2.99h1.807l-2.42 3.571 2.494 3.826h-1.944l-1.924-2.98zm8.027-2.789a2.83 2.83 0 011.437.37c.437.24.779.581 1.025 1.025.247.437.37.948.37 1.532 0 .585-.123 1.1-.37 1.543a2.654 2.654 0 01-1.025 1.025c-.43.24-.909.36-1.437.36-.726 0-1.296-.23-1.712-.688v2.653h-1.648v-7.735h1.574v.655c.409-.493 1.004-.74 1.786-.74zm-.285 4.502c.422 0 .768-.141 1.035-.423.275-.289.412-.673.412-1.152 0-.479-.137-.86-.412-1.141-.267-.289-.613-.433-1.035-.433-.423 0-.772.144-1.046.433-.268.282-.402.662-.402 1.141 0 .48.134.863.402 1.152.274.282.623.423 1.046.423zm6.388-4.502c.88 0 1.557.211 2.029.634.472.416.708 1.046.708 1.892v3.244h-1.543v-.708c-.31.528-.887.792-1.733.792-.437 0-.817-.074-1.141-.222a1.7 1.7 0 01-.73-.613 1.595 1.595 0 01-.253-.887c0-.529.198-.944.592-1.247.402-.303 1.018-.454 1.85-.454h1.31c0-.36-.11-.634-.328-.825-.218-.197-.546-.296-.983-.296-.303 0-.602.05-.898.148a2.29 2.29 0 00-.74.38l-.591-1.151c.31-.218.68-.387 1.11-.507a5.03 5.03 0 011.341-.18zm-.127 4.745c.282 0 .532-.064.75-.19.219-.134.374-.328.466-.582v-.58h-1.131c-.676 0-1.015.221-1.015.665 0 .211.081.38.243.507.17.12.399.18.687.18zm7.001 1.11a3.569 3.569 0 01-1.638-.37 2.894 2.894 0 01-1.13-1.047 2.868 2.868 0 01-.402-1.51c0-.564.134-1.068.402-1.512a2.819 2.819 0 011.13-1.035 3.487 3.487 0 011.638-.38c.599 0 1.12.126 1.564.38.451.246.779.602.983 1.067l-1.279.687c-.296-.522-.722-.782-1.278-.782-.43 0-.786.14-1.068.422-.281.282-.422.666-.422 1.152 0 .486.14.87.422 1.152.282.282.638.423 1.068.423.563 0 .99-.261 1.278-.782l1.279.697a2.263 2.263 0 01-.983 1.057c-.444.253-.965.38-1.564.38zm3.549-5.77h1.638v3.381l2.768-3.381h1.511v5.685H40.22v-3.382l-2.758 3.382H35.94v-5.685zm11.845 2.715c.67.226 1.004.677 1.004 1.353 0 .514-.194.912-.581 1.194-.388.282-.965.423-1.733.423h-3.033v-5.685h2.906c.711 0 1.268.13 1.67.39.401.254.602.613.602 1.078 0 .282-.074.532-.222.75a1.4 1.4 0 01-.613.497zm-2.832-.38H46.2c.578 0 .866-.204.866-.613 0-.401-.288-.602-.866-.602h-1.247v1.215zm1.384 2.23c.606 0 .909-.208.909-.624 0-.218-.07-.377-.211-.475-.141-.106-.363-.159-.666-.159h-1.416v1.258h1.384zm6.669-2.748c.74.007 1.3.173 1.68.497.38.324.57.789.57 1.395 0 .634-.214 1.123-.644 1.468-.43.346-1.039.518-1.828.518l-2.769-.01v-5.685h1.638v1.817h1.353zm2.864-1.817h1.638v5.685h-1.639v-5.685zm-3.234 4.522c.317.007.56-.06.73-.2.168-.141.253-.353.253-.634 0-.275-.085-.476-.254-.603-.162-.127-.405-.194-.729-.2l-.983-.011v1.648h.983zm6.46-4.522h1.638v3.381l2.769-3.381h1.511v5.685h-1.638v-3.382l-2.758 3.382h-1.522v-5.685zm2.854-.613c-1.24 0-1.864-.546-1.87-1.638h1.077c.007.246.074.44.2.581.135.134.328.2.582.2.254 0 .447-.066.581-.2.141-.14.212-.335.212-.581h1.099c-.008 1.092-.635 1.638-1.881 1.638z" fill="#43442F"/><path d="M53.925 35.064v1.934h-1.149v-.92H49.78v.92h-1.149v-1.934h.174c.264-.006.447-.161.547-.468.1-.306.164-.742.19-1.308l.056-1.474h3.717v3.25h.61zm-3.265-1.688a7.22 7.22 0 01-.103 1.062c-.048.274-.14.483-.278.626h1.8v-2.235h-1.395l-.024.547zm6.04 2.766a2.61 2.61 0 01-1.212-.278 2.126 2.126 0 01-.832-.784 2.15 2.15 0 01-.301-1.134c0-.422.1-.8.3-1.133.201-.333.479-.592.833-.777.36-.19.763-.285 1.212-.285.45 0 .851.095 1.205.285.354.185.631.444.832.777.201.333.301.71.301 1.133 0 .423-.1.8-.3 1.134a2.14 2.14 0 01-.833.784 2.562 2.562 0 01-1.205.278zm0-1.015c.317 0 .576-.106.777-.317.206-.217.31-.505.31-.864 0-.36-.104-.644-.31-.856a1.01 1.01 0 00-.777-.325c-.317 0-.578.109-.784.325-.206.212-.31.497-.31.856 0 .36.104.647.31.864.206.211.467.317.784.317zm7.35.951v-2.552l-1.276 2.14h-.523l-1.245-2.148v2.56H59.89v-4.264h1.291l1.364 2.465 1.45-2.465h1.157l.016 4.264H64.05z" fill="#A62C21"/><path d="M11.451 1l13.365 13.314H1v20.369h25.757" stroke="#A62C21" stroke-width="1.981" stroke-linecap="round" stroke-linejoin="round"/></svg>
